static/logos/audi-wordmark-black.svg

<svg width="60" height="38" viewBox="0 0 60 38" fill="none" xmlns="http://www.w3.org/2000/svg">
<g clip-path="url(#clip0_1204_80)">
<path fill-rule="evenodd" clip-rule="evenodd" d="M49.9913 36.7923V29.0455H46.7942V36.7923H49.9913ZM33.0656 33.5757V29.1627H29.9668V32.5361C29.9668 33.5166 29.9276 33.7915 29.8689 34.0465C29.6531 34.7527 28.9077 35.0658 28.143 35.0658C27.0842 35.0658 26.5938 34.6541 26.3975 34.007C26.3388 33.7918 26.3192 33.5564 26.2996 33.321C26.28 33.066 26.2996 32.7911 26.2996 32.4976V29.163H23.1616V33.5956C23.1616 34.5963 23.4953 35.3414 24.0441 35.851C24.9854 36.7731 26.5742 37.0476 28.0451 37.0476C29.8297 37.0476 31.2026 36.7927 32.1831 35.8318C32.6934 35.341 33.0656 34.6939 33.0656 33.5757ZM17.8465 33.0265C17.6912 32.9996 17.5337 32.9866 17.3761 32.9876H13.846C13.6693 32.9876 13.4731 33.0072 13.3752 33.0265C13.4339 32.9674 13.5518 32.8502 13.6693 32.6931L15.2577 30.0648C15.4736 29.7122 15.5715 29.4768 15.6107 29.3788C15.6499 29.4768 15.7478 29.7122 15.9636 30.0851L17.5915 32.733C17.6702 32.8502 17.7878 32.9674 17.8465 33.0265ZM23.7696 36.7923L16.709 26.202H12.7476L13.7869 27.4375C13.8065 27.4571 13.846 27.4763 13.8848 27.4966C13.8456 27.5162 13.8065 27.5354 13.7869 27.555L7.62878 36.7923H11.1981L12.1593 35.2036C12.1985 35.1252 12.218 35.0465 12.218 35.0077C12.2572 35.0077 12.3555 35.0465 12.4534 35.0465H18.8274C18.9253 35.0465 19.0037 35.0269 19.0428 35.0077C19.0392 35.0628 19.0529 35.1177 19.082 35.1647L20.0824 36.7923H23.7696ZM45.9316 32.8113C45.9316 31.9481 45.5784 30.9477 44.4803 29.5552L41.8324 26.2017H38.1453L40.2437 28.5551C40.597 28.9475 41.0479 29.3002 41.0479 29.3002C40.5382 29.0057 39.8911 28.8884 39.3811 28.8884C38.1652 28.8884 36.9291 29.1434 35.8314 29.7517C34.6544 30.3982 33.8698 31.4773 33.8698 32.9093C33.8698 34.0073 34.3602 34.851 34.9877 35.4981C36.4002 36.9099 38.9687 37.0473 39.9103 37.0473C41.3025 37.0473 43.4796 36.7336 44.7157 35.6156C45.4416 34.9486 45.9316 34.0272 45.9316 32.8113ZM42.872 32.9093C42.872 33.7134 42.3421 34.3211 41.6754 34.6544C41.1262 34.9489 40.4788 35.0273 39.9103 35.0273C39.3419 35.0273 38.6749 34.9094 38.1257 34.6348C37.459 34.3015 36.9487 33.6543 36.9487 32.9481C36.9487 32.1051 37.5958 31.4377 38.3611 31.1044C38.8319 30.8892 39.4007 30.8105 39.8512 30.8105C40.2832 30.8105 40.9107 30.869 41.4011 31.0655C42.284 31.4377 42.872 32.144 42.872 32.9093ZM48.9756 0.952774C46.6794 0.949486 44.4498 1.72414 42.6502 3.15045C40.8509 1.72368 38.6211 0.948962 36.3248 0.952774C34.0287 0.949561 31.7992 1.72421 29.9997 3.15045C28.2006 1.72351 25.9709 0.948775 23.6746 0.952774C21.3785 0.949561 19.149 1.72421 17.3495 3.15045C15.55 1.72421 13.3205 0.949561 11.0244 0.952774C5.3896 0.952774 0.823242 5.5188 0.823242 11.1539C0.823242 16.7884 5.38926 21.3551 11.0244 21.3551C13.3205 21.3583 15.55 20.5837 17.3495 19.1574C19.149 20.5837 21.3785 21.3583 23.6746 21.3551C25.9708 21.3588 28.2005 20.5841 29.9997 19.1574C31.7992 20.5837 34.0287 21.3583 36.3248 21.3551C38.6211 21.3589 40.8509 20.5842 42.6502 19.1574C44.4495 20.5842 46.6793 21.3589 48.9756 21.3551C54.6105 21.3551 59.1765 16.7888 59.1765 11.1539C59.1765 5.51913 54.6105 0.952774 48.9756 0.952774ZM15.6804 17.491C14.3805 18.4393 12.7566 19.018 11.0244 19.018C6.67752 19.018 3.16004 15.5008 3.16004 11.1539C3.16004 6.80706 6.67752 3.28957 11.0244 3.28957C12.7566 3.28957 14.3795 3.86863 15.6804 4.81722C14.2471 6.61784 13.4689 8.85249 13.4738 11.1539C13.4748 13.4545 14.2523 15.6873 15.6804 17.491ZM17.3498 15.8265C16.3473 14.4753 15.8075 12.8365 15.8109 11.1539C15.8066 9.47121 16.3464 7.83218 17.3498 6.48134C18.3532 7.83218 18.8931 9.47121 18.8888 11.1539C18.8919 12.8365 18.3522 14.4751 17.3498 15.8265ZM28.3309 17.491C26.9802 18.485 25.3463 19.0194 23.6693 19.0157C21.9957 19.0194 20.3652 18.4848 19.0186 17.491C20.4468 15.6876 21.2243 13.4548 21.2252 11.1543C21.2301 8.85282 20.4519 6.61817 19.0186 4.81756C20.3651 3.82359 21.9956 3.28895 23.6693 3.29256C25.4141 3.29256 27.0261 3.85701 28.3309 4.81756C26.8976 6.61817 26.1194 8.85282 26.1243 11.1543C26.1252 13.4548 26.9027 15.6876 28.3309 17.491ZM29.9997 15.8265C28.9971 14.4753 28.4574 12.8365 28.4608 11.1539C28.4565 9.47121 28.9963 7.83218 29.9997 6.48134C31.0032 7.83214 31.5432 9.47117 31.539 11.1539C31.5422 12.8366 31.0024 14.4753 29.9997 15.8265ZM40.9811 17.491C39.6763 18.4519 38.0643 19.0157 36.3198 19.0157C34.5753 19.0157 32.9736 18.4509 31.6688 17.491C33.097 15.6876 33.8745 13.4548 33.8754 11.1543C33.8803 8.85282 33.1021 6.61817 31.6688 4.81756C32.9736 3.85734 34.5753 3.29256 36.3198 3.29256C38.0643 3.29256 39.6763 3.85701 40.9811 4.81756C39.548 6.6183 38.7699 8.85287 38.7745 11.1543C38.7756 13.4547 39.5531 15.6874 40.9811 17.491ZM42.6505 15.8265C41.648 14.4753 41.1083 12.8365 41.1116 11.1539C41.1073 9.47121 41.6471 7.83218 42.6505 6.48134C43.654 7.83218 44.1938 9.47121 44.1895 11.1539C44.1926 12.8365 43.6529 14.4751 42.6505 15.8265ZM48.9756 19.018C47.2428 19.018 45.6192 18.4393 44.3196 17.491C45.7476 15.6874 46.5251 13.4547 46.5263 11.1543C46.5309 8.85287 45.7527 6.6183 44.3196 4.81756C45.6205 3.86929 47.2431 3.28991 48.9756 3.28991C53.3219 3.28991 56.84 6.80739 56.84 11.1543C56.84 15.5005 53.3219 19.018 48.9756 19.018Z" fill="black"/>
</g>
<defs>
<clipPath id="clip0_1204_80">
<rect width="60" height="38" fill="white"/>
</clipPath>
</defs>
</svg>

<svg xmlns="http://www.w3.org/2000/svg" width="101.053" height="64" fill="none" viewBox="0 0 60 38"><g clip-path="url(#a)"><path fill="#000" fill-rule="evenodd" d="M49.991 36.792v-7.747h-3.197v7.747zm-16.925-3.216v-4.413h-3.1v3.373c0 .98-.038 1.255-.097 1.51-.216.707-.961 1.02-1.726 1.02-1.059 0-1.55-.412-1.745-1.059a4 4 0 0 1-.098-.686c-.02-.255 0-.53 0-.823v-3.335h-3.138v4.433c0 1 .333 1.745.882 2.255.941.922 2.53 1.197 4.001 1.197 1.785 0 3.158-.255 4.138-1.216.51-.491.883-1.138.883-2.256m-15.22-.55a2.7 2.7 0 0 0-.47-.038h-3.53c-.177 0-.373.02-.47.038.058-.059.176-.176.293-.333l1.589-2.628c.216-.353.314-.588.353-.686.039.098.137.333.353.706l1.627 2.648c.08.117.197.234.255.294m5.924 3.766-7.061-10.59h-3.961l1.039 1.235c.02.02.059.04.098.06-.04.02-.079.038-.098.058l-6.158 9.237h3.57l.96-1.588a.5.5 0 0 0 .059-.196c.04 0 .137.038.235.038h6.374c.098 0 .177-.02.216-.038-.004.055.01.11.039.157l1 1.627zm22.162-3.98c0-.864-.354-1.864-1.452-3.257l-2.648-3.353h-3.687l2.099 2.353c.353.393.804.745.804.745-.51-.294-1.157-.412-1.667-.412-1.216 0-2.452.255-3.55.864-1.177.646-1.961 1.725-1.961 3.157 0 1.098.49 1.942 1.118 2.59 1.412 1.41 3.98 1.548 4.922 1.548 1.393 0 3.57-.313 4.806-1.431.726-.667 1.216-1.589 1.216-2.805m-3.06.097c0 .804-.53 1.412-1.197 1.745-.549.295-1.196.373-1.765.373-.568 0-1.235-.118-1.784-.392-.667-.334-1.177-.98-1.177-1.687 0-.843.647-1.51 1.412-1.844.47-.215 1.04-.293 1.49-.293.432 0 1.06.058 1.55.255.883.372 1.471 1.078 1.471 1.843M48.976.953A10.16 10.16 0 0 0 42.65 3.15 10.15 10.15 0 0 0 36.325.953 10.16 10.16 0 0 0 30 3.15 10.15 10.15 0 0 0 23.675.953a10.16 10.16 0 0 0-6.326 2.197A10.16 10.16 0 0 0 11.025.953c-5.634 0-10.2 4.566-10.2 10.2 0 5.635 4.565 10.202 10.2 10.202a10.16 10.16 0 0 0 6.326-2.198 10.16 10.16 0 0 0 6.325 2.198A10.15 10.15 0 0 0 30 19.157a10.16 10.16 0 0 0 6.325 2.198c2.296.004 4.526-.77 6.325-2.198a10.15 10.15 0 0 0 6.326 2.198c5.635 0 10.2-4.566 10.2-10.201S54.612.953 48.977.953M15.68 17.49a7.9 7.9 0 0 1-4.656 1.527 7.86 7.86 0 0 1-7.864-7.864 7.86 7.86 0 0 1 7.864-7.864 7.92 7.92 0 0 1 4.656 1.527 10.14 10.14 0 0 0-2.206 6.337c0 2.3.778 4.533 2.206 6.337m1.67-1.665a7.8 7.8 0 0 1-1.54-4.672 7.8 7.8 0 0 1 1.54-4.673 7.8 7.8 0 0 1 1.539 4.673 7.82 7.82 0 0 1-1.54 4.672m10.98 1.665a7.84 7.84 0 0 1-4.66 1.525 7.8 7.8 0 0 1-4.651-1.525 10.2 10.2 0 0 0 2.206-6.337 10.14 10.14 0 0 0-2.206-6.336 7.8 7.8 0 0 1 4.65-1.525c1.745 0 3.357.564 4.662 1.525a10.14 10.14 0 0 0-2.207 6.336c.001 2.3.779 4.534 2.207 6.337M30 15.826a7.8 7.8 0 0 1-1.54-4.672A7.8 7.8 0 0 1 30 6.48a7.8 7.8 0 0 1 1.539 4.673 7.8 7.8 0 0 1-1.54 4.672m10.981 1.665a7.83 7.83 0 0 1-4.661 1.525 7.8 7.8 0 0 1-4.651-1.525 10.2 10.2 0 0 0 2.206-6.337 10.14 10.14 0 0 0-2.206-6.336 7.8 7.8 0 0 1 4.65-1.525c1.745 0 3.357.564 4.662 1.525a10.14 10.14 0 0 0-2.206 6.336c0 2.3.778 4.533 2.206 6.337m1.67-1.665a7.8 7.8 0 0 1-1.54-4.672 7.8 7.8 0 0 1 1.54-4.673 7.8 7.8 0 0 1 1.538 4.673 7.82 7.82 0 0 1-1.538 4.672m6.325 3.192a7.9 7.9 0 0 1-4.656-1.527 10.2 10.2 0 0 0 2.206-6.337 10.14 10.14 0 0 0-2.206-6.336 7.86 7.86 0 0 1 12.52 6.337 7.86 7.86 0 0 1-7.864 7.863" clip-rule="evenodd"/></g><defs><clipPath id="a"><path fill="#fff" d="M0 0h60v38H0z"/></clipPath></defs></svg>
